findly-builder/apps/searchassist/src/assets/icons/OR.svg

<svg width="15" height="9" viewBox="0 0 15 9" fill="none" xmlns="http://www.w3.org/2000/svg">
<path d="M7.21591 4.36364C7.21591 2.01278 5.78125 0.627841 3.87429 0.627841C1.96378 0.627841 0.53267 2.01278 0.53267 4.36364C0.53267 6.71094 1.96378 8.09943 3.87429 8.09943C5.78125 8.09943 7.21591 6.71449 7.21591 4.36364ZM5.89134 4.36364C5.89134 6.01847 5.06037 6.9169 3.87429 6.9169C2.69176 6.9169 1.85724 6.01847 1.85724 4.36364C1.85724 2.70881 2.69176 1.81037 3.87429 1.81037C5.06037 1.81037 5.89134 2.70881 5.89134 4.36364ZM8.46147 8H9.77894V5.33665H11.1213L12.5488 8H14.019L12.4458 5.11648C13.3017 4.77202 13.7527 4.04048 13.7527 3.05327C13.7527 1.66477 12.8578 0.727273 11.1887 0.727273H8.46147V8ZM9.77894 4.2429V1.82812H10.9863C11.97 1.82812 12.4103 2.27912 12.4103 3.05327C12.4103 3.82741 11.97 4.2429 10.9934 4.2429H9.77894Z" fill="#BDC1C6"/>
</svg>

<svg width="15" height="9" fill="none" xmlns="http://www.w3.org/2000/svg"><path d="M7.216 4.364C7.216 2.013 5.78.628 3.874.628 1.964.628.533 2.013.533 4.364c0 2.347 1.43 3.735 3.341 3.735 1.907 0 3.342-1.385 3.342-3.735Zm-1.325 0c0 1.654-.83 2.553-2.017 2.553-1.182 0-2.017-.899-2.017-2.553 0-1.655.835-2.554 2.017-2.554 1.186 0 2.017.899 2.017 2.554ZM8.461 8H9.78V5.337h1.342L12.55 8h1.47l-1.573-2.884c.856-.344 1.307-1.076 1.307-2.063 0-1.388-.895-2.326-2.564-2.326H8.46V8ZM9.78 4.243V1.828h1.207c.984 0 1.424.451 1.424 1.225s-.44 1.19-1.417 1.19H9.78Z" fill="#BDC1C6"/></svg>
